X:1
T:Ain't gonna rain
%%score [ 1 2 3 4 ]
L:1/8
M:4/4
K:Ab
V:1 treble nm="Soprano"
V:2 treble nm="Alto"
V:3 treble-8 nm="Tenor"
V:4 bass nm="Bass"
V:1
 E2 | A2 A A c2 E2 | A2 (A A) c2 E2 | A2 A A c2 c2 | B8 | d2 (d d) B2 B2 | G2 (G G) E4 | %7
w: 1.It|ain't gon- na rain, It|ain't gon- na snow. It|ain't gon- na rain no|mo'.|Come on, _ ev- 'ry|bod- y _ now.|
w: 2.Oh|what did the black- bird|say to the crow? It|ain't gon- na rain no|mo'.|Ain't gon- na hail and|ain't gon- na snow.|
w: 3.Just|bake them _ bis- cuits|good and _ brown. It|ain't gon- na rain no|mo'.|Swing yo' _ la- dies|round and _ round.|
 E2 E E F2 G2 | A6 |] %9
w: Ain't gon- na rain no|mo'.|
w: Ain't gon- na rain no|mo'.|
w: Ain't gon- na rain no|mo'.|
V:2
 C2 | C2 C C E2 C2 | C2 (C C) E2 C2 | C2 C C E2 E2 | =D2 D2 _D4 | F2 (F F) D2 D2 | D2 (D D) D4 | %7
w: 1.It|ain't gon- na rain, It|ain't gon- na snow. It|ain't gon- na rain no|mo', no mo'.|Come on, _ ev- 'ry|bod- y _ now.|
w: 2.Oh|what did the black- bird|say to the crow? It|ain't gon- na rain no|mo', no mo'.|Ain't gon- na hail and|ain't gon- na snow.|
w: 3.Just|bake them _ bis- cuits|good and _ brown. It|ain't gon- na rain no|mo', no mo'.|Swing yo' _ la- dies|round and _ round.|
 E2 E E =D2 _D2 | C6 |] %9
w: Ain't gon- na rain no|mo'.|
w: Ain't gon- na rain no|mo'.|
w: Ain't gon- na rain no|mo'.|
V:3
 E2 | E2 F F A2 E2 | E2 (F F) A2 E2 | E2 A A =A2 A2 | _A2 A2 G4 | B2 (A A) G2 G2 | B2 (B B) G4 | %7
w: 1.It|ain't gon- na rain, It|ain't gon- na snow. It|ain't gon- na rain no|mo', no mo'.|Come on, _ ev- 'ry|bod- y _ now.|
w: 2.Oh|what did the black- bird|say to the crow? It|ain't gon- na rain no|mo', no mo'.|Ain't gon- na hail and|ain't gon- na snow.|
w: 3.Just|bake them _ bis- cuits|good and _ brown. It|ain't gon- na rain no|mo', no mo'.|Swing yo' _ la- dies|round and _ round.|
 E2 E E B2 E2 | E6 |] %9
w: Ain't gon- na rain no|mo'.|
w: Ain't gon- na rain no|mo'.|
w: Ain't gon- na rain no|mo'.|
V:4
 A,,2 | A,,2 A,, A,, A,,2 A,,2 | A,,2 (A,, A,,) A,,2 A,,2 | A,,2 E, E, F,2 F,2 | B,,2 B,,2 E,4 | %5
w: 1.It|ain't gon- na rain, It|ain't gon- na snow. It|ain't gon- na rain no|mo', no mo'.|
w: 2.Oh|what did the black- bird|say to the crow? It|ain't gon- na rain no|mo', no mo'.|
w: 3.Just|bake them _ bis- cuits|good and _ brown. It|ain't gon- na rain no|mo', no mo'.|
 E,2 (E, E,) E,2 E,2 | E,2 (E, E,) E,4 | E,2 E, E, B,,2 E,2 | A,,6 |] %9
w: Come on, _ ev- 'ry|bod- y _ now.|Ain't gon- na rain no|mo'.|
w: Ain't gon- na hail and|ain't gon- na snow.|Ain't gon- na rain no|mo'.|
w: Swing yo' _ la- dies|round and _ round.|Ain't gon- na rain no|mo'.|

